X: 1
T: Dance To Your Daddy
M: 3/2
L: 1/8
R: three-two
K: Amin
E4 E2D2 C2E2|G4 G2F2 E2c2|E4 E2D2 C2B,2|A2,A2 A2G2 A4:|
A2B2 c2A2 B2G2|E2G2 G2^F2 G4|A2B2 c2A2 B2G2|E2AA- A2G2 A4|
A2B2 c2A2 B2G2|E2G2 G2^F2 G4|E4 E2D2 C2B,2|A2,A2 A2G2 A4||
